packages/foundations/assets/icons/functional/images/food/beverage_20.svg

<svg width="20" height="20" viewBox="0 0 20 20" fill="none" xmlns="http://www.w3.org/2000/svg">
<g clip-path="url(#clip0_185_1064)">
<path fill-rule="evenodd" clip-rule="evenodd" d="M4.0219 9L10.0203 9.0018C10.6443 9.0018 11.0928 9.5673 11.0148 10.1524L10.039 17.127C9.9804 17.6154 9.5506 17.9805 9.0622 18H5.0573C4.5689 17.9805 4.1391 17.6154 4.0609 17.127L3.01261 10.1526C2.91501 9.547 3.3967 9 4.0219 9ZM8.88781 11.0043H5.18261L5.91551 16.0073H8.18161L8.88781 11.0043ZM11 4H13.0049L12.9985 4.998C12.9985 5.856 13.2325 6.6946 13.642 7.4551L14.5586 9.1517C14.8316 9.6587 14.9976 10.2051 14.9976 10.7521V16L12.9963 16.0036C12.4493 16.0036 12 16.4334 12 17C12 17.547 12.4493 17.9963 12.9963 17.9963L15.9939 18C16.5409 18 17 17.5311 17 17.0037V10.7521C17 9.873 16.7558 8.9939 16.326 8.2125L15.4078 6.4933C15.1539 6.0244 14.9976 5.5275 14.9976 5V3.602C14.9976 2.7228 14.2747 2 13.3761 2H10.6215C9.7228 2 9 2.7228 9 3.602L9.0008 5.0175C9.0008 5.6025 9.4103 6.0121 9.9953 6.0121C10.5804 6.0121 11 5.585 11 5V4Z" fill="#1A1C1F"/>
</g>
<defs>
<clipPath id="clip0_185_1064">
<rect width="20" height="20" fill="white"/>
</clipPath>
</defs>
</svg>

<svg xmlns="http://www.w3.org/2000/svg" width="20" height="20" fill="none"><g clip-path="url(#a)"><path fill="#1A1C1F" fill-rule="evenodd" d="m4.022 9 5.998.002c.624 0 1.073.565.995 1.15l-.976 6.975c-.059.488-.488.854-.977.873H5.057a1.056 1.056 0 0 1-.996-.873l-1.048-6.974C2.915 9.547 3.397 9 4.022 9m4.866 2.004H5.183l.733 5.003h2.266zM11 4h2.005l-.007.998c0 .858.235 1.697.644 2.457l.917 1.697c.273.507.439 1.053.439 1.6V16l-2.002.004A.99.99 0 0 0 12 17a1 1 0 0 0 .996.996l2.998.004c.547 0 1.006-.469 1.006-.996v-6.252c0-.879-.244-1.758-.674-2.54l-.918-1.719c-.254-.469-.41-.966-.41-1.493V3.602c0-.88-.723-1.602-1.622-1.602h-2.754C9.721 2 9 2.723 9 3.602v1.416c0 .585.41.994.995.994S11 5.585 11 5z" clip-rule="evenodd"/></g><defs><clipPath id="a"><path fill="#fff" d="M0 0h20v20H0z"/></clipPath></defs></svg>
